X:1
T:Title
%%score { ( 1 3 ) | ( 2 4 ) }
L:1/8
Q:1/4=100
M:4/4
K:Eb
V:1 treble nm="Grand Piano"
V:3 treble 
V:2 bass 
V:4 bass 
V:1
 GG z A G2 [DF]>[DA] | z4 [EB]2 z2 | e2 d>c [EGB]2 [B,EG]2 | F6 z2 | G2 G>A G2 [DF]>[DF] | %5
w: Geo.~C.~Hugg * * * * *|||||
 [EG]>[FA] [GB]>[Ac] [GB]2 [Ge]2 | [Ge]2 [GB]>[EG] [DB]2 [DA]F | E6 z2 | cc z c c[GB] z [GB] | %9
w: ||||
 [Ad]>[Ac] [Ad]>[AB] [Ge]4 | [Ge]2 G>G c2 B2 | [DF]6 z2 | GG z A G2 [DF]>[DA] | %13
w: ||||
 [EG]>[FA] [GB]>[Ac] [GB]2 [Ge]2 | [Ge]2 [GB]>[EG] [DB]2 [DA]F | E6 z2 |] %16
w: |||
V:2
 [E,B,E][E,B,E] z [E,CE] [E,B,E]2 [B,,B,]>[B,,B,] | E,>E, E,>E, z2 B,2 | %2
 [A,CA]2 [A,CA]>[A,EA][K:bass] E,2 E,2 | z2 B,>B, B,2 z2 | %4
 [E,B,E]2 [E,B,E]>[E,CE] [E,B,E]2 [B,,B,]>[B,,B,] | [E,B,]>[E,B,] [E,E]>[E,E] [E,E]2 [E,B,]2 | %6
 [E,B,]2 [E,B,]>[E,B,] [B,,B,]2 F,[A,D] | [E,G,]6 z2 | %8
 [A,EA][A,EA] z [A,EA] [A,EA][K:bass][E,E] z [E,B,] | [F,B,]>[F,B,] [B,,B,]>[D,B,] [E,B,]4 | %10
 [E,B,]2 [E,B,E]>[E,B,E] [E,A,E]2 [E,G,E]2 | [B,,B,]6 z2 | %12
 [E,B,E][E,B,E] z [E,CE] [E,B,E]2 [B,,B,]>[B,,B,] | [E,B,]>[E,B,] [E,E]>[E,E] [E,E]2 [E,B,]2 | %14
 [E,B,]2 [E,E]>[E,B,] [B,,B,]2 F,[A,D] | [E,G,]6 z2 |] %16
V:3
 x8 | [B,EG]>[B,FA] [EGB]>[EAc] G2- [Ge]2 | x8 | [B,D]2 D>D D2 z2 | x8 | x8 | x8 | x8 | x8 | x8 | %10
 x8 | x8 | x8 | x8 | x8 | x8 |] %16
V:4
 x8 | z4 E,4 | x4[K:bass] x4 | B,,6 z2 | x8 | x8 | z4 z2 B,,2 | x8 | x5[K:bass] x3 | x8 | x8 | x8 | %12
 x8 | x8 | z4 z2 B,,2 | x8 |] %16

